X:181
T:Reel 181
M:4/4
K:Gmaj
L:1/8
fe|dG (3BAG dGBG|cA (3AAA fcAc|dG (3GGG dGBG|| (3def ga bage:||2 (3def ga bgg2|abbg bbc'bgb|abab c'fac'| (3bc'b gb  (3bc'b gb|fdcA AGG2|b2bg bd'c'b| (3aba fa afaf|g2bc' d'2c'b|ad'd'c' aggf|
